!!!COM: des Prez, Josquin
!!!CDT: ~1450-1521/08/27
!!!OPR: Missa Faisant regretz
!!!ONM: 5
!!!OTL: Agnus dei
!!!AGN: Mass; Agnus dei
!!!SCT: NJE 8.1
!!!SCA: New Josquin Edition 8.1
!!!voices: 4
**kern	**text	**kern	**text	**kern	**text	**kern	**text
*staff4	*staff4	*staff3	*staff3	*staff2	*staff2	*staff1	*staff1
*Ivox	*	*Ivox	*	*Ivox	*	*Ivox	*
*I"Bassus	*	*I"Tenor	*	*I"Altus	*	*I"Superius	*
*I'B	*	*I'T	*	*I'A	*	*I'S	*
*>[A,B,C]	*>[A,B,C]	*>[A,B,C]	*>[A,B,C]	*>[A,B,C]	*>[A,B,C]	*>[A,B,C]	*>[A,B,C]
*>A	*>A	*>A	*>A	*>A	*>A	*>A	*>A
*clefF4	*	*clefGv2	*	*clefGv2	*	*clefG2	*
*k[b-]	*	*k[b-]	*	*k[b-]	*	*k[b-]	*
*M3/1	*	*M3/1	*	*M3/1	*	*M3/1	*
*met(O)	*	*met(O)	*	*met(O)	*	*met(O)	*
!!!OMD: Agnus dei I
!!section: Agnus dei I
=1-	=1-	=1-	=1-	=1-	=1-	=1-	=1-
0.r	.	0.r	.	1B-	A-	0.r	.
.	.	.	.	1G	-gnus	.	.
.	.	.	.	1A	de-	.	.
=2	=2	=2	=2	=2	=2	=2	=2
0.r	.	0.r	.	1G	-i,	1b-	A-
.	.	.	.	2r	.	1g	-gnus
.	.	.	.	1g	a-	.	.
.	.	.	.	.	.	1a	de-
.	.	.	.	2f\	-gnus	.	.
=3	=3	=3	=3	=3	=3	=3	=3
0.r	.	1c	A-	2e\	de-	2g/	.
.	.	.	.	2c\	.	2.cc\	.
.	.	1A	-gnus	2e\	.	.	.
.	.	.	.	.	.	4b-\	.
.	.	.	.	2f\	.	1a	.
.	.	1B-	de-	2.d\	.	.	.
.	.	.	.	.	.	2g/	.
.	.	.	.	4e\	.	.	.
=4	=4	=4	=4	=4	=4	=4	=4
2r	.	1A	-i,	2.f\	.	1.a	.
1F	A-	.	.	.	.	.	.
.	.	.	.	4e\	.	.	.
.	.	2r	.	2c\	.	.	.
2D\	-gnus	1B-	a-	2d\	.	2f/	.
1E	de-	.	.	1G	.	1g	.
.	.	2G/	-gnus	.	.	.	.
=5	=5	=5	=5	=5	=5	=5	=5
1D	-i,	1A	de-	1d	-i,	1f	-i,
2r	.	1G	-i,	2.B-\	a-	2r	.
1E-	a-	.	.	.	.	1g	a-
.	.	.	.	4A/	.	.	.
.	.	2r	.	2B-\	.	.	.
2C/	-gnus	[2A/	a-	2c\	-gnus	2e/	-gnus
=6	=6	=6	=6	=6	=6	=6	=6
1D	de-	2A/]	.	1F	de-	1f	de-
.	.	2F/	-gnus	.	.	.	.
1C	-i,	1G	de-	2.c\	.	1e	-i,
.	.	.	.	4B-\	.	.	.
2r	.	1F	-i	4A/	.	2r	.
.	.	.	.	4G/	.	.	.
[2D\	a-	.	.	2A/	.	[2f/	a-
=7	=7	=7	=7	=7	=7	=7	=7
2D\]	.	1r	.	2F/	.	2f/]	.
2BB-/	-gnus	.	.	1B-	.	2d/	-gnus
1C	de-	1r	.	.	.	1e	de-
.	.	.	.	2A/	.	.	.
1BB-	-i	2r	.	1B-	-i	1d	-i
.	.	[2f\	qui	.	.	.	.
=8	=8	=8	=8	=8	=8	=8	=8
1r	.	2f\]	.	1d	qui	2r	.
.	.	2d\	.	.	.	2f/	qui
1r	.	1e	tol-	1c	.	2.g/	tol-
.	.	.	.	.	.	4a/	.
2r	.	1d	-lis,	2.B-\	tol-	4b-\	.
.	.	.	.	.	.	4cc\	.
[2B-\	qui	.	.	.	.	[2dd\	.
.	.	.	.	4G/	.	.	.
=9	=9	=9	=9	=9	=9	=9	=9
2B-\]	.	2r	.	2G/	.	2dd\]	.
2G\	.	1e	qui	2.g\	.	2b-\	.
1A	tol-	.	.	.	.	1cc	.
.	.	.	.	4e\	.	.	.
.	.	2c\	.	2f\	.	.	.
1G	-lis	1d	tol-	1g	-lis	1b-	-lis
=10	=10	=10	=10	=10	=10	=10	=10
2r	.	1c	-lis	2.e\	pec-	2r	.
1A	pec-	.	.	.	.	1cc	pec-
.	.	.	.	4d\	.	.	.
.	.	2r	.	2e\	.	.	.
2F\	.	1d	pec-	2f\	.	2a/	.
1G	-ca-	.	.	4B-\	-ca-	1b-	-ca-
.	.	.	.	4c\	.	.	.
.	.	2B-\	.	4d\	.	.	.
.	.	.	.	4e\	.	.	.
=11	=11	=11	=11	=11	=11	=11	=11
1F	-ta	1c	-ca-	1f	-ta	1a	-ta
2r	.	1B-	-ta	2.d\	mun-	2r	.
1B-	mun-	.	.	.	.	1dd	mun-
.	.	.	.	4e\	.	.	.
.	.	2r	.	2f\	.	.	.
2G\	.	[2e-i\	mun-	2g\	.	2b-\	.
=12	=12	=12	=12	=12	=12	=12	=12
1A	-di,	2e-\]	.	4c\	.	1cc	-di,
.	.	.	.	4d\	.	.	.
.	.	2c\	.	4e\	.	.	.
.	.	.	.	4f\	.	.	.
1G	.	1d	-di,	2g\	-di,	1b-	.
.	.	.	.	2G/	mi-	.	.
2r	.	1c	.	2.A/	.	2.cc\	mi-
[2c\	mi-	.	.	.	.	.	.
.	.	.	.	4B-\	.	4b-\	.
=13	=13	=13	=13	=13	=13	=13	=13
2c\]	.	2r	.	2c\	.	2g/	.
2A\	-se-	1f	mi-	2F/	-se-	2a/	-se-
1B-	-re-	.	.	2d\	-re-	2f/	-re-
.	.	2d\	-se-	2B-\	.	2g/	.
1A	-re	1eni	-re-	2.c\	.	2a/	.
.	.	.	.	.	.	2e/	.
.	.	.	.	4A/	.	.	.
=14	=14	=14	=14	=14	=14	=14	=14
2F\	no-	1d	-re	2A/	-re	2f/	-re
2D\	.	.	.	2F/	no-	2.a/	no-
1E	.	2B-\	no-	4G/	.	.	.
.	.	.	.	4A/	.	4g/	.
.	.	2G/	.	4B-\	.	1g	.
.	.	.	.	4c\	.	.	.
1D	.	1A	.	[1dl	-bis.	.	.
.	.	.	.	.	.	2f#i/	.
=15	=15	=15	=15	=15	=15	=15	=15
0.Gl	-bis.	0.Gl	-bis.	0.d]	.	0.gl	-bis.
!!LO:LB:i:g=z
=16||	=16||	=16||	=16||	=16||	=16||	=16||	=16||
*>B	*>B	*>B	*>B	*>B	*>B	*>B	*>B
*clefF4	*	*clefGv2	*	*clefGv2	*	*clefG2	*
*k[b-]	*	*k[b-]	*	*k[b-]	*	*k[b-]	*
*M2/1	*	*M2/1	*	*M2/1	*	*M2/1	*
*met(C|)	*	*met(C|)	*	*met(C|)	*	*met(C|)	*
!!!OMD: Agnus dei II
!!section: Agnus dei II
0r	.	0r	.	1d	A-	0f	A-
.	.	.	.	2d\	-gnus	.	.
.	.	.	.	[2d\	de-	.	.
=17	=17	=17	=17	=17	=17	=17	=17
0r	.	0r	.	2d\]	.	1d	-gnus
.	.	.	.	4c\	.	.	.
.	.	.	.	4B-\	.	.	.
.	.	.	.	1c	-i,	1e	de-
=18	=18	=18	=18	=18	=18	=18	=18
0r	.	0r	.	2r	.	1d	-i,
.	.	.	.	2d\	a-	.	.
.	.	.	.	2d\	-gnus	[1f	a-
.	.	.	.	[2d\	de-	.	.
=19	=19	=19	=19	=19	=19	=19	=19
0r	.	0r	.	2d\]	.	2f/]	.
.	.	.	.	4c#i\	.	2d/	-gnus
.	.	.	.	4Bni\	.	.	.
.	.	.	.	1c#i	.	1e	de-
=20	=20	=20	=20	=20	=20	=20	=20
1G	A-	0B-	A-	0d	-i	0d	-i
2G\	-gnus	.	.	.	.	.	.
[2G\	de-	.	.	.	.	.	.
=21	=21	=21	=21	=21	=21	=21	=21
2G\]	.	1G	-gnus	0r	.	0r	.
4F\	.	.	.	.	.	.	.
4E\	.	.	.	.	.	.	.
1F	-i,	1A	de-	.	.	.	.
=22	=22	=22	=22	=22	=22	=22	=22
2r	.	1G	-i,	0r	.	0r	.
2G\	a-	.	.	.	.	.	.
2G\	-gnus	[1B-	a-	.	.	.	.
[2G\	de-	.	.	.	.	.	.
=23	=23	=23	=23	=23	=23	=23	=23
2G\]	.	2B-\]	.	0r	.	0r	.
4F#i\	.	2G/	-gnus	.	.	.	.
4E\	.	.	.	.	.	.	.
1F#i	.	1A	de-	.	.	.	.
=24	=24	=24	=24	=24	=24	=24	=24
0G	-i	0G	-i	2.d\	qui	1r	.
.	.	.	.	4G/	.	.	.
.	.	.	.	2G/	.	1b-	qui
.	.	.	.	[2g\	tol-	.	.
=25	=25	=25	=25	=25	=25	=25	=25
0r	.	0r	.	2g\]	.	2g/	tol-
.	.	.	.	2f\	.	2a/	.
.	.	.	.	2.g\	.	2g/	.
.	.	.	.	.	.	[2b-\	.
.	.	.	.	4G/	.	.	.
=26	=26	=26	=26	=26	=26	=26	=26
1r	.	0r	.	2G/	.	2b-\]	.
.	.	.	.	1g	.	2g/	.
1D	qui	.	.	.	.	1a	.
.	.	.	.	2f#i\	.	.	.
=27	=27	=27	=27	=27	=27	=27	=27
2.E\	tol-	1r	.	0g	-lis	0g	-lis
4C/	.	.	.	.	.	.	.
2C/	.	1e-	qui	.	.	.	.
[2c\	.	.	.	.	.	.	.
=28	=28	=28	=28	=28	=28	=28	=28
2c\]	.	2c\	tol-	0r	.	0r	.
2B-\	.	2d\	.	.	.	.	.
2.c\	.	2c\	.	.	.	.	.
.	.	[2e-i\	.	.	.	.	.
4C/	.	.	.	.	.	.	.
=29	=29	=29	=29	=29	=29	=29	=29
2C/	.	2e-\]	.	1r	.	0r	.
1c	.	2c\	.	.	.	.	.
.	.	1d	.	1G	pec-	.	.
2Bni\	.	.	.	.	.	.	.
=30	=30	=30	=30	=30	=30	=30	=30
0c	-lis	0c	-lis	2.A/	-ca-	1r	.
.	.	.	.	4F/	.	.	.
.	.	.	.	2F/	.	1cc	pec-
.	.	.	.	[2A/	.	.	.
=31	=31	=31	=31	=31	=31	=31	=31
0r	.	0r	.	2A/]	.	2a/	-ca-
.	.	.	.	2G/	.	2b-\	.
.	.	.	.	2.A/	.	2a/	.
.	.	.	.	.	.	[2cc\	.
.	.	.	.	4F/	.	.	.
=32	=32	=32	=32	=32	=32	=32	=32
0r	.	0r	.	2F/	.	2cc\]	.
.	.	.	.	1A	.	2a/	.
.	.	.	.	.	.	1b-	.
.	.	.	.	2G/	.	.	.
=33	=33	=33	=33	=33	=33	=33	=33
1r	.	1r	.	0d	-ta	0a	-ta
2r	.	1f	pec-	.	.	.	.
[2d\	pec-	.	.	.	.	.	.
=34	=34	=34	=34	=34	=34	=34	=34
2d\]	.	2d\	-ca-	0r	.	0r	.
2c\	.	2e\	.	.	.	.	.
2.d\	-ca-	2d\	.	.	.	.	.
.	.	[2f\	.	.	.	.	.
4D\	.	.	.	.	.	.	.
=35	=35	=35	=35	=35	=35	=35	=35
2D\	.	2f\]	.	0r	.	0r	.
1d	.	2d\	.	.	.	.	.
.	.	1e	.	.	.	.	.
2c#i\	.	.	.	.	.	.	.
=36	=36	=36	=36	=36	=36	=36	=36
0d	-ta	0d	-ta	1r	.	1r	.
.	.	.	.	2r	.	1f	mun-
.	.	.	.	[2d\	mun-	.	.
=37	=37	=37	=37	=37	=37	=37	=37
0r	.	0r	.	2d\]	.	2d/	.
.	.	.	.	2c\	.	2e/	.
.	.	.	.	2.d\	.	2d/	.
.	.	.	.	.	.	[2f/	.
.	.	.	.	4D/	.	.	.
=38	=38	=38	=38	=38	=38	=38	=38
0r	.	0r	.	2D/	.	2f/]	.
.	.	.	.	1d	.	2d/	.
.	.	.	.	.	.	1e	.
.	.	.	.	2c#i\	.	.	.
=39	=39	=39	=39	=39	=39	=39	=39
1r	.	1r	.	0d	-di,	0d	-di,
2r	.	1B-	mun-	.	.	.	.
[2G\	mun-	.	.	.	.	.	.
=40	=40	=40	=40	=40	=40	=40	=40
2G\]	.	2G/	.	0r	.	0r	.
2F\	.	2A/	.	.	.	.	.
2.G\	.	2G/	.	.	.	.	.
.	.	[2B-\	.	.	.	.	.
4GG/	.	.	.	.	.	.	.
=41	=41	=41	=41	=41	=41	=41	=41
2GG/	.	2B-\]	.	0r	.	0r	.
1G	.	2G/	.	.	.	.	.
.	.	1A	.	.	.	.	.
2F#i\	.	.	.	.	.	.	.
=42	=42	=42	=42	=42	=42	=42	=42
2G\	-di,	1G	-di,	2r	.	1r	.
2B-\	mi-	.	.	2d\	mi-	.	.
2G\	-se-	1B-	mi-	2d\	-se-	2r	.
[2B-\	-re-	.	.	2d\	-re-	[2dd\	mi-
=43	=43	=43	=43	=43	=43	=43	=43
4B-\]	.	2G/	-se-	2B-\	-re	2dd\]	.
4A\	.	.	.	.	.	.	.
2F\	-re	2A/	-re-	2c\	.	2cc\	-se-
2.G\	no-	2G/	-re	2e-i\	no-	2.b-\	-re-
.	.	[2B-\	no-	[2d\	.	.	.
4F\	.	.	.	.	.	4a/	.
=44	=44	=44	=44	=44	=44	=44	=44
2D\	.	2B-\]	.	2d\]	.	2f/	-re
2E\	.	2G/	.	2c\	.	1g	no-
1D	.	1A	.	[1dl	-bis.	.	.
.	.	.	.	.	.	2f#i/	.
=45	=45	=45	=45	=45	=45	=45	=45
0Gl	-bis.	0Gl	-bis.	0d]	.	0gl	-bis.
!!LO:LB:i:g=z
=46||	=46||	=46||	=46||	=46||	=46||	=46||	=46||
*>C	*>C	*>C	*>C	*>C	*>C	*>C	*>C
*clefF4	*	*clefGv2	*	*clefGv2	*	*clefG2	*
*k[b-]	*	*k[b-]	*	*k[b-]	*	*k[b-]	*
*M2/1	*	*M2/1	*	*M2/1	*	*M2/1	*
*met(C|)	*	*met(C|)	*	*met(C|)	*	*met(C|)	*
!!!OMD: Agnus dei III
!!section: Agnus dei III
!!LO:TX:Z=12:t=S quotes S of Frye's "Tout a par moy"; A after Agricola's song reworking
0r	.	0r	.	1d	A-	1a	A-
.	.	.	.	1d	-gnus	2.a/	-gnus
.	.	.	.	.	.	4b-\	.
=47	=47	=47	=47	=47	=47	=47	=47
0r	.	0r	.	1e-i	de-	1cc	de-
.	.	.	.	1d	-i,	[1dd	-i,
=48	=48	=48	=48	=48	=48	=48	=48
0r	.	1.f	A-	0r	.	2dd\]	.
.	.	.	.	.	.	2cc\	.
.	.	.	.	.	.	1a	.
.	.	2d\	-gnus	.	.	.	.
=49	=49	=49	=49	=49	=49	=49	=49
2r	.	1e	de-	0r	.	1g	a-
2C/	A-	.	.	.	.	.	.
2D\	-gnus	1d	-i,	.	.	2b-\	-gnus
[2F\	.	.	.	.	.	[2a/	.
=50	=50	=50	=50	=50	=50	=50	=50
2F\]	.	0r	.	1A	a-	2a/]	.
2D\	.	.	.	.	.	2f/	.
1C	.	.	.	1A	-gnus	1e	.
=51	=51	=51	=51	=51	=51	=51	=51
1BB-	de-	1r	.	1B-	de-	2d/	de-
.	.	.	.	.	.	2.f/	.
1F	-i,	2r	.	1A	-i,	.	.
.	.	.	.	.	.	4g/	.
.	.	[2f\	a-	.	.	2a/	.
=52	=52	=52	=52	=52	=52	=52	=52
0r	.	2f\]	.	1r	.	2f/	.
.	.	2d\	-gnus	.	.	2.b-\	.
.	.	1e	de-	2A/	a-	.	.
.	.	.	.	.	.	4a/	.
.	.	.	.	2A/	-gnus	[2a/	.
=53	=53	=53	=53	=53	=53	=53	=53
1r	.	1d	-i,	1B-	de-	2a/]	.
.	.	.	.	.	.	2g/	.
1D	a-	2f\	a-	1A	-i,	2.a/	.
.	.	2d\	-gnus	.	.	.	.
.	.	.	.	.	.	4g/	.
=54	=54	=54	=54	=54	=54	=54	=54
2C/	-gnus	2e\	de-	2A/	a-	2e/	.
2D\	.	2d\	-i,	2A/	-gnus	2f/	.
2GG/	.	1r	.	2B-\	de-	2g/	.
[2D\	de-	.	.	2A/	-i,	2a/	.
=55	=55	=55	=55	=55	=55	=55	=55
2D\]	.	1r	.	2r	.	2f/	.
2C/	.	.	.	2A/	a-	2.e/	.
1D	-i	2f\	a-	2A/	-gnus	.	.
.	.	.	.	.	.	4d/	.
.	.	2d\	-gnus	2B-\	de-	[2d/	.
=56	=56	=56	=56	=56	=56	=56	=56
1r	.	1e	de-	1A	-i	2d/]	.
.	.	.	.	.	.	2c#i/	.
1D	qui	1d	-i	2r	.	1d	-i
.	.	.	.	2D/	qui	.	.
=57	=57	=57	=57	=57	=57	=57	=57
2GG/	tol-	2B-\	qui	2D/	tol-	1r	.
2.G\	.	2G/	.	2E-i/	.	.	.
.	.	1A	tol-	1D	-lis,	1a	qui
4F#i\	.	.	.	.	.	.	.
4F#i\	.	.	.	.	.	.	.
4E\	.	.	.	.	.	.	.
=58	=58	=58	=58	=58	=58	=58	=58
2.G\	.	1G	-lis,	2r	.	1b-	.
.	.	.	.	2d\	qui	.	.
4F\	.	.	.	.	.	.	.
2D\	.	1r	.	2d\	tol-	2a/	.
2C/	.	.	.	2e-i\	.	[2a/	tol-
=59	=59	=59	=59	=59	=59	=59	=59
1D	-lis,	2f\	qui	1d	-lis,	2a/]	.
.	.	2d\	.	.	.	2f/	.
2r	.	1e	tol-	1r	.	1g	.
2C/	qui	.	.	.	.	.	.
=60	=60	=60	=60	=60	=60	=60	=60
2.D\	tol-	1d	-lis	2r	.	1f	-lis
.	.	.	.	2d\	qui	.	.
4BB-/	.	.	.	.	.	.	.
2D\	.	1r	.	2d\	tol-	1r	.
2C/	.	.	.	2e-i\	.	.	.
=61	=61	=61	=61	=61	=61	=61	=61
2.BB-/	.	2f\	pec-	1d	-lis	1b-	pec-
.	.	2d\	.	.	.	.	.
4GG/	.	.	.	.	.	.	.
2GG/	-lis	2e\	-ca-	2r	.	1b-	-ca-
2G\	pec-	2d\	-ta	2d\	pec-	.	.
=62	=62	=62	=62	=62	=62	=62	=62
2.F\	-ca-	0r	.	1d	-ca-	1a	-ta
4E\	.	.	.	.	.	.	.
2C/	-ta	.	.	1e-i	.	1g	mun-
[2G\	mun-	.	.	.	.	.	.
=63	=63	=63	=63	=63	=63	=63	=63
4G\]	.	2B-\	mun-	1d	-ta,	1dd	.
4A\	.	.	.	.	.	.	.
2B-\	.	2G/	.	.	.	.	.
2F\	.	2A/	.	1r	.	2cc\	.
2G\	.	2G/	.	.	.	[2b-\	.
=64	=64	=64	=64	=64	=64	=64	=64
1D	-di,	2F/	.	1r	.	4b-\]	.
.	.	.	.	.	.	4a/	.
.	.	2D/	.	.	.	2.a/	.
1r	.	1E	.	2G/	pec-	.	.
.	.	.	.	.	.	4g/	.
.	.	.	.	2G/	-ca-	[2g/	.
=65	=65	=65	=65	=65	=65	=65	=65
2r	.	1D	-di,	1A	.	2g/]	.
2D\	pec-	.	.	.	.	2f#i/	.
2BB-/	-ca-	1r	.	1G	-ta	[1g	-di,
2C/	-ta	.	.	.	.	.	.
=66	=66	=66	=66	=66	=66	=66	=66
2.GG/	mun-	0B-	mun-	2r	.	0g_	.
.	.	.	.	2D/	mun-	.	.
4AA/	.	.	.	.	.	.	.
4BB-/	.	.	.	1D	-di,	.	.
4GG/	.	.	.	.	.	.	.
[2B-\	.	.	.	.	.	.	.
=67	=67	=67	=67	=67	=67	=67	=67
4B-\]	.	1G	.	1E-i	.	1g]	.
4A\	.	.	.	.	.	.	.
2G\	.	.	.	.	.	.	.
2F\	.	[1A	.	[1D	.	1r	.
[2G\	.	.	.	.	.	.	.
=68	=68	=68	=68	=68	=68	=68	=68
2G\]	.	1A]	.	1D]	.	1r	.
2F#i\	.	.	.	.	.	.	.
2G\	-di,	1G	-di,	2r	.	1b-	pec-
2GG/	pec-	.	.	2d\	pec-	.	.
=69	=69	=69	=69	=69	=69	=69	=69
2D\	-ca-	2r	.	2d\	-ca-	2a/	.
2C/	.	2c\	pec-	2e-i\	.	1a	-ca-
2D\	.	2A/	-ca-	[1d	-ta	.	.
2GG/	-ta	2B-\	.	.	.	2g/	.
=70	=70	=70	=70	=70	=70	=70	=70
2.D\	mun-	2A/	-ta	1d]	.	1a	-ta
.	.	1F	mun-	.	.	.	.
4C/	.	.	.	.	.	.	.
4D\	.	.	.	1r	.	1f	mun-
4E\	.	.	.	.	.	.	.
2F\	.	2D/	.	.	.	.	.
=71	=71	=71	=71	=71	=71	=71	=71
2G\	.	2E/	.	0r	.	1b-	.
2GG/	.	2D/	.	.	.	.	.
1D	-di,	2F/	.	.	.	1a	.
.	.	2D/	.	.	.	.	.
=72	=72	=72	=72	=72	=72	=72	=72
1r	.	1E	.	2G/	mun-	2g/	.
.	.	.	.	2G/	-di,	1g	.
1D	pec-	1D	-di,	1A	.	.	.
.	.	.	.	.	.	2f#i/	.
=73	=73	=73	=73	=73	=73	=73	=73
2GG/	-ca-	2r	.	1G	.	1g	-di,
2.G\	.	1B-	pec-	.	.	.	.
.	.	.	.	2r	.	2r	.
4F\	.	.	.	.	.	.	.
2G\	.	2G/	.	2d\	pec-	2d/	mun-
=74	=74	=74	=74	=74	=74	=74	=74
2D\	-ta	2A/	-ca-	2d\	-ca-	2f/	.
1G	mun-	2G/	-ta	2e-i\	.	2g/	.
.	.	2r	.	2d\	-ta	2b-\	.
[2F\	.	[2f\	mun-	2A/	mun-	[2a/	.
=75	=75	=75	=75	=75	=75	=75	=75
2F\]	.	2f\]	.	2A/	-di,	2a/]	.
2G\	.	2d\	.	2B-\	.	2g/	.
2C/	.	2e\	-di,	[1A	.	2a/	.
2D\	.	2d\	.	.	.	2f/	.
=76	=76	=76	=76	=76	=76	=76	=76
[0AA	-di,	1r	.	0A_	.	[0e	-di,
.	.	[1c	do-	.	.	.	.
=77	=77	=77	=77	=77	=77	=77	=77
1AA]	.	1c]	.	1A]	.	1e]	.
1D	do-	1A	-na	1r	.	1f	do-
=78	=78	=78	=78	=78	=78	=78	=78
2GG/	-na	1B-	no-	1r	.	1d	-na
1D	no-	.	.	.	.	.	.
.	.	1A	-bis,	1A	do-	1e	no-
2C#i/	.	.	.	.	.	.	.
=79	=79	=79	=79	=79	=79	=79	=79
1D	-bis,	1f	do-	1A	-na	1d	-bis,
1r	.	1d	-na	1B-	no-	2r	.
.	.	.	.	.	.	[2dd\	do-
=80	=80	=80	=80	=80	=80	=80	=80
1r	.	1e	no-	1A	-bis,	2dd\]	.
.	.	.	.	.	.	2cc\	-na
[1D	do-	1d	-bis	2r	.	1dd	no-
.	.	.	.	2d\	do-	.	.
=81	=81	=81	=81	=81	=81	=81	=81
2D\]	.	0r	.	2d\	-na	2a/	-bis
2C/	-na	.	.	2e-i\	no-	1cc	pa-
1G	no-	.	.	[1d	-bis,	.	.
.	.	.	.	.	.	2b-\	.
=82	=82	=82	=82	=82	=82	=82	=82
1F	-bis	1r	.	1d]	.	1a	.
2.G\	pa-	2B-\	pa-	1r	.	2d/	.
.	.	2G/	.	.	.	2e/	.
4F\	.	.	.	.	.	.	.
=83	=83	=83	=83	=83	=83	=83	=83
2D\	.	2A/	.	0r	.	2f/	.
2E\	.	2G/	-cem,	.	.	2g/	.
2D\	.	1r	.	.	.	2b-\	.
[2F\	.	.	.	.	.	[2a/	.
=84	=84	=84	=84	=84	=84	=84	=84
2F\]	.	0r	.	1A	no-	2a/]	.
2D\	.	.	.	.	.	2f/	.
1C	-cem,	.	.	1A	-bis	1e	.
=85	=85	=85	=85	=85	=85	=85	=85
2.BB-/	do-	1r	.	1B-	pa-	1d	-cem,
4C/	.	.	.	.	.	.	.
4D\	.	[1f	do-	1A	-cem,	1r	.
4E\	.	.	.	.	.	.	.
[2F\	.	.	.	.	.	.	.
=86	=86	=86	=86	=86	=86	=86	=86
2F\]	.	1f]	.	2r	.	1f	do-
1D	.	.	.	2A/	do-	.	.
.	.	1d	-na	1A	-na	1f	-na
2F\	-na	.	.	.	.	.	.
=87	=87	=87	=87	=87	=87	=87	=87
2E-\	no-	1e-i	no-	0B-	no-	1g	no-
1.G	-bis	.	.	.	.	.	.
.	.	1d	-bis	.	.	1g	-bis
=88	=88	=88	=88	=88	=88	=88	=88
2F\	pa-	0r	.	1A	-bis,	2a/	pa-
2.A\	.	.	.	.	.	1cc	.
.	.	.	.	1r	.	.	.
4F\	.	.	.	.	.	.	.
2G\	.	.	.	.	.	2b-\	.
=89	=89	=89	=89	=89	=89	=89	=89
2.A\	.	2c\	pa-	1r	.	1a	.
.	.	2A/	.	.	.	.	.
4F\	.	.	.	.	.	.	.
2G\	.	2B-\	.	2r	.	2g/	.
2F\	.	2A/	-cem,	2A/	no-	2a/	.
=90	=90	=90	=90	=90	=90	=90	=90
2A\	.	1r	.	2A/	-bis	2cc\	.
2G\	.	.	.	2B-\	pa-	2b-\	.
2.A\	.	2r	.	1A	-cem,	2cc\	.
.	.	2c\	pa-	.	.	[2a/	.
4F\	.	.	.	.	.	.	.
=91	=91	=91	=91	=91	=91	=91	=91
2F\	.	2A/	.	0r	.	2a/]	.
2G\	.	1B-	.	.	.	2g/	.
1D	-cem,	.	.	.	.	1f	-cem,
.	.	2A/	.	.	.	.	.
=92	=92	=92	=92	=92	=92	=92	=92
2A\	pa-	2c\	.	1r	.	2e/	pa-
2F\	.	2A/	.	.	.	2.a/	.
2G\	.	1B-	.	2r	.	.	.
.	.	.	.	.	.	4g/	.
4D\	.	.	.	2D/	no-	[2f/	.
4E\	.	.	.	.	.	.	.
=93	=93	=93	=93	=93	=93	=93	=93
4F\	.	0A	-cem,	1D	-bis	4f/]	.
4G\	.	.	.	.	.	4e/	.
2A\	.	.	.	.	.	2.d/	.
1AA	-cem,	.	.	1Eni	pa-	.	.
.	.	.	.	.	.	4Bni/	.
.	.	.	.	.	.	2c#i/	.
=94	=94	=94	=94	=94	=94	=94	=94
2r	.	2f\	do-	1D	-cem,	1d	-cem,
2.A\	do-	2d\	-na	.	.	.	.
.	.	2e\	no-	2r	.	2r	.
4G\	.	.	.	.	.	.	.
4F\	.	2d\	-bis,	2d\	do-	2a/	do-
4E\	.	.	.	.	.	.	.
=95	=95	=95	=95	=95	=95	=95	=95
2D\	.	1r	.	2d\	-na	2b-\	.
2A\	.	.	.	2e-i\	no-	2cc\	-na
[1D	-na	2r	.	[1d	-bis,	2.dd\	no-
.	.	[2f\	no-	.	.	.	.
.	.	.	.	.	.	4cc\	.
=96	=96	=96	=96	=96	=96	=96	=96
1D]	.	2f\]	.	1d]	.	2a/	.
.	.	2d\	.	.	.	2b-\	.
1r	.	2e\	.	2r	.	2cc\	.
.	.	[2d\	-bis	2D/	no-	2dd\	.
=97	=97	=97	=97	=97	=97	=97	=97
0r	.	2d\]	.	1D	-bis	2a/	-bis
.	.	2B-\	pa-	.	.	2.b-\	pa-
.	.	1G	.	1E-i	pa-	.	.
.	.	.	.	.	.	4a/	.
.	.	.	.	.	.	[2g/	.
=98	=98	=98	=98	=98	=98	=98	=98
1D	no-	1A	.	1D	-cem,	2g/]	.
.	.	.	.	.	.	2f#i/	.
2BB-/	-bis	[1G	-cem.	2r	.	[1g	-cem.
[2GG/	pa-	.	.	2d\	no-	.	.
=99	=99	=99	=99	=99	=99	=99	=99
4GG/]	.	0G_	.	1d	-bis	0g_	.
4AA/	.	.	.	.	.	.	.
4BB-/	.	.	.	.	.	.	.
4GG/	.	.	.	.	.	.	.
1C	.	.	.	1e-i	pa-	.	.
=100	=100	=100	=100	=100	=100	=100	=100
0GGl	-cem.	0Gl	.	0dl	-cem.	0gl	.
==	==	==	==	==	==	==	==
*-	*-	*-	*-	*-	*-	*-	*-
!!!rscale-alt: 1/4
!!!RDF**kern: l=long note in original notation
!!!RDF**kern: i=editorial accidental
!!!ENC: Jesse Rodin; Victoria Chang 2011/09/06
!!!END: 2011/09/06/
!!!EED: Jesse Rodin
!!!EEV: 2018/01/19/
!!attribution-level@Jos: 1 (secure, core group [checkmark])
!!!ONB: Translated from MusicXML and edited on 2018/01/19/ by Craig Sapp
!!muse2ps: T^@{OPR}^u^@{ONM}{. }@{OTL}^C^@{COM}\n@{SCT}^i2I150v90,90,90,120c125z18l2700t130
